X: 132
T:Jota de Manuel
M:3/4
L:1/8
Q:200
C:Trad.
S:Rep. Manuel Fernández
R:Jota
K:C
G2G2 | c4 BA | G2F2E2 | G2FED2- | D2 G2G2|
B4 AG | F2E2D2 | F2EDC2- | C2 G2G2 | c4 BA | G2F2E2 |
G2FED2- | D2 G2G2 |B2A2G2 | F2E2D2 | C6- | C2 c4|
B2A2B2 | c2BAG2- G6| E2F2G2 |A2A2G2| B2AGF2-|
F4F"F."c | F2G2A2 | B2B2B2 | c2BAG2-| G6| E2F2G2 |
A2A2 G2 | B2AGF2- | F6| F2G2A2 | B2B2B2| c2BAG2- |
G6 | E2F2G2 |A2A2 c2| B2AG F2- | F2 B2c2| B2AG F2- | F2 A2B2 |
A2 GFE | E4E"F."c :| E2F2G2 |A2A2 c2 | B2AG F2- | F2 B2c2 |
B2 AGF2-| F2 A2G2 | F2ED C2- |: C"F."G CECE | GFED CD | E2 CECE |
GFED CD | D2 B,DB,D |FEDC B,C | D2 B,DB,D |FEDC B,D :||

